_assets/images/vector/logo.svg

<svg width="182" height="33" viewBox="0 0 182 33" version="1.1" xmlns="http://www.w3.org/2000/svg"
     xmlns:xlink="http://www.w3.org/1999/xlink">
    <g transform="translate(-26127 237)">
        <use xlink:href="#path0_fill" transform="translate(26127 -237)" fill="#FFFFFF"/>
        <path id="path0_fill" fill-rule="evenodd"
              d="M 16.4818 0C 7.38182 0 0 7.36154 0 16.5C 0 25.6385 7.38182 33 16.4818 33C 25.5818 33 32.9636 25.6385 32.9636 16.5C 32.9 7.36154 25.5182 0 16.4818 0ZM 16.4818 28.9385C 9.60909 28.9385 4.00909 23.3538 4.00909 16.5C 4.00909 9.64615 9.60909 4.06154 16.4818 4.06154C 23.3545 4.06154 28.8909 9.64615 28.8909 16.5C 28.8909 23.3538 23.2909 28.9385 16.4818 28.9385ZM 19.2182 14.7231C 18.3909 14.4692 17.4364 13.8981 16.4818 13.3269C 16.1636 13.1365 15.9091 12.9462 15.6545 12.7558C 15.3364 12.5654 15.0182 12.3115 14.7636 12.1212C 13.6182 11.2327 13.8727 10.2173 14.9545 9.51923C 16.1 8.75769 17.5 8.18654 19.4727 7.48846C 20.1091 7.29808 20.3636 6.98077 20.2364 6.72692C 20.2364 6.72692 20.2364 6.66346 20.1727 6.66346C 20.1727 6.6 20.1091 6.6 20.0455 6.53654C 19.6636 6.15577 18.8364 5.83846 17.4364 5.775C 16.8636 5.71154 15.5909 5.775 13.9364 6.28269C 10.8182 7.17115 7.82727 9.51923 7.76364 10.4077C 7.7 11.6769 10.9455 13.7077 13.4273 15.0404C 13.5545 15.6115 13.5545 16.3096 13.5545 17.0077C 13.5545 17.0712 13.5545 17.1346 13.5545 17.1346C 13.5545 17.1346 13.5545 17.1346 13.5545 17.1981C 13.5545 18.2135 13.4273 19.2923 13.3 19.9904C 13.1091 21.45 12.0909 21.7038 10.9455 21.0692C 9.73636 20.4346 8.59091 19.4827 6.93636 18.0865C 6.42727 17.6423 6.04545 17.5154 5.85455 17.8327C 5.85455 17.8962 5.85455 17.8962 5.79091 17.9596C 5.66364 18.4673 5.72727 19.3558 6.42727 20.625C 6.68182 21.1327 7.31818 22.2115 8.52727 23.4173C 10.7545 25.7019 14.3182 27.225 15.1455 26.7808C 16.2909 26.2731 16.4818 22.4019 16.4818 19.5462C 16.5455 19.4827 16.6091 19.4827 16.6727 19.4192L 16.7364 19.3558L 16.8 19.2923C 17.7545 18.6577 19.1545 17.9596 20.2364 17.5154C 20.2364 17.5154 20.3 17.5154 20.3 17.4519C 20.3636 17.4519 20.3636 17.4519 20.4273 17.3885C 20.4909 17.3885 20.5545 17.325 20.6182 17.325L 20.6818 17.325C 20.7455 17.325 20.8091 17.2615 20.8727 17.2615C 22.2091 16.7538 22.9727 17.5154 22.9727 18.7846C 22.9727 20.1808 22.7818 21.6404 22.3364 23.7346C 22.2091 24.4327 22.2727 24.8135 22.6545 24.8135C 22.7182 24.8135 22.7182 24.8135 22.7818 24.8135C 23.2909 24.6865 23.9909 24.1788 24.8182 22.9731C 25.1364 22.5288 25.7727 21.3865 26.2182 19.7365C 27.1091 16.6269 26.7273 12.8192 25.9636 12.3115C 25.0091 11.7404 21.6364 13.3904 19.2182 14.7231ZM 47.0909 21.3865C 47.0909 22.9096 47.0909 23.2269 44.4182 24.1154L 45.6909 26.9712C 50.9727 25.8288 50.9727 24.4327 50.9727 21.1327L 50.9727 6.79038L 47.0909 6.79038L 47.0909 21.3865ZM 59.2455 20.2442C 57.7818 20.2442 57.0182 19.3558 56.8273 17.5154L 64.7182 17.5154C 64.7182 17.5154 64.9091 16.8173 64.9091 15.8019C 64.9091 12.7558 63 10.4712 59.1182 10.4712C 55.3 10.4712 53.0091 12.8192 53.0091 16.7538C 53.0091 21.0692 55.6182 22.9731 58.8636 22.9731C 61.6636 22.9731 64.0818 21.6404 64.9727 21.1327L 63.6364 18.7846C 62.1727 19.6096 60.5182 20.2442 59.2455 20.2442ZM 59.1818 13.2C 60.5818 13.2 61.2818 14.025 61.2818 15.6115L 56.8909 15.6115C 57.0818 14.025 57.8455 13.2 59.1818 13.2ZM 72.4818 19.7365C 72.0364 19.7365 71.4636 19.6731 71.4636 18.6577L 71.4636 13.5173L 74.7091 13.5173L 74.7091 10.7885L 71.4636 10.7885L 71.4636 7.29808L 67.7727 7.74231L 67.7727 10.7885L 66.1182 10.7885L 66.1182 13.5173L 67.7727 13.5173L 67.7727 18.6577C 67.7727 21.6404 68.9818 23.0365 71.4636 23.0365C 73.1818 23.0365 74.7091 22.4019 75.5364 22.0212L 74.2636 19.2288C 73.9454 19.3558 72.9909 19.7365 72.4818 19.7365ZM 75.2182 10.0904L 79.8636 10.0904L 79.8636 22.7827L 83.7455 22.7827L 83.7455 10.0904L 88.3273 10.0904L 88.3273 6.79038L 75.2182 6.79038L 75.2182 10.0904ZM 98.1909 10.5346C 96.3455 10.5346 94.7545 11.4231 93.6727 12.1212L 93.6727 6.09231L 89.9182 6.09231L 89.9182 22.7827L 93.6727 22.7827L 93.6727 14.85C 94.3727 14.2154 95.5818 13.4538 96.7273 13.4538C 97.8727 13.4538 98.1273 14.2154 98.1273 15.2308L 98.1273 22.7827L 101.882 22.7827L 101.882 14.3423C 101.818 11.9942 100.8 10.5346 98.1909 10.5346ZM 110.091 10.5346C 105.955 10.5346 103.727 12.8192 103.727 16.7538C 103.727 20.7519 106.018 23.0365 110.091 23.0365C 114.227 23.0365 116.455 20.7519 116.455 16.8173C 116.455 12.8192 114.164 10.5346 110.091 10.5346ZM 110.091 20.1808C 108.309 20.1808 107.545 18.9115 107.545 16.8173C 107.545 14.7231 108.309 13.4538 110.091 13.4538C 111.873 13.4538 112.7 14.7231 112.7 16.8173C 112.7 18.9115 111.873 20.1808 110.091 20.1808ZM 126.573 18.7212C 125.809 19.4192 124.536 20.1173 123.518 20.1173C 122.373 20.1173 122.118 19.3558 122.118 18.3404L 122.118 10.7885L 118.364 10.7885L 118.364 19.2288C 118.364 21.5769 119.445 23.0365 121.991 23.0365C 123.836 23.0365 125.427 22.2115 126.573 21.45L 126.573 22.7827L 130.327 22.7827L 130.327 10.7885L 126.573 10.7885L 126.573 18.7212ZM 140.891 12.0577C 139.873 11.2327 138.664 10.5346 136.945 10.5346C 134.145 10.5346 132.236 12.6288 132.236 16.8173C 132.236 20.9423 134.145 23.0365 136.945 23.0365C 138.664 23.0365 139.873 22.4019 140.891 21.5769L 140.891 22.8462C 140.891 24.1788 140.318 24.6865 138.473 24.6865C 137.264 24.6865 135.036 24.1788 133.509 23.7346L 132.745 26.7173C 134.782 27.2885 137.327 27.6692 139.236 27.6692C 142.864 27.6692 144.645 26.0192 144.645 22.5923L 144.645 10.7885L 140.891 10.7885L 140.891 12.0577ZM 140.891 18.5942C 140 19.5462 139.045 19.9904 138.155 19.9904C 136.755 19.9904 136.055 18.8481 136.055 16.7538C 136.055 14.6596 136.755 13.5173 138.155 13.5173C 139.109 13.5173 140.064 13.9615 140.891 14.9135L 140.891 18.5942ZM 155.464 10.5346C 153.618 10.5346 152.027 11.4231 150.945 12.1212L 150.945 6.09231L 147.191 6.09231L 147.191 22.7827L 150.945 22.7827L 150.945 14.85C 151.645 14.2154 152.855 13.4538 154 13.4538C 155.145 13.4538 155.4 14.2154 155.4 15.2308L 155.4 22.7827L 159.155 22.7827L 159.155 14.3423C 159.091 11.9942 158.073 10.5346 155.464 10.5346ZM 167.109 19.7365C 166.664 19.7365 166.091 19.6731 166.091 18.6577L 166.091 13.5173L 169.336 13.5173L 169.336 10.7885L 166.091 10.7885L 166.091 7.29808L 162.4 7.74231L 162.4 10.7885L 160.745 10.7885L 160.745 13.5173L 162.4 13.5173L 162.4 18.6577C 162.4 21.6404 163.609 23.0365 166.091 23.0365C 167.809 23.0365 169.336 22.4019 170.164 22.0212L 168.891 19.2288C 168.573 19.3558 167.682 19.7365 167.109 19.7365ZM 177.736 15.4212C 176.209 15.0404 174.682 14.85 174.682 14.0885C 174.682 13.7077 175.127 13.3904 176.018 13.3904C 177.164 13.3904 178.945 13.8981 180.027 14.3423L 181.491 11.8673C 180.218 11.2962 177.864 10.5346 175.764 10.5346C 172.645 10.5346 170.927 12.1212 170.927 14.2154C 170.927 16.6269 173.091 17.5788 175.064 18.0865C 176.4 18.4038 178.245 18.7212 178.245 19.4827C 178.245 19.8635 177.8 20.2442 176.909 20.2442C 175.636 20.2442 173.345 19.4827 172.136 18.9115L 170.673 21.5135C 172.009 22.275 174.618 23.1 177.036 23.1C 180.218 23.1 182 21.6404 182 19.4192C 182 16.8808 179.773 15.9288 177.736 15.4212Z"/>
    </g>
</svg>

<svg width="182" height="33" viewBox="0 0 182 33" xmlns="http://www.w3.org/2000/svg" xmlns:xlink="http://www.w3.org/1999/xlink"><g transform="translate(-26127 237)"><use xlink:href="#a" transform="translate(26127 -237)" fill="#FFF"/><path id="a" fill-rule="evenodd" d="M16.482 0C7.382 0 0 7.362 0 16.5 0 25.639 7.382 33 16.482 33s16.482-7.361 16.482-16.5C32.9 7.362 25.518 0 16.482 0zm0 28.939c-6.873 0-12.473-5.585-12.473-12.439S9.61 4.062 16.482 4.062c6.873 0 12.409 5.584 12.409 12.438 0 6.854-5.6 12.439-12.41 12.439zm2.736-14.216c-.827-.254-1.782-.825-2.736-1.396a9.316 9.316 0 0 1-.827-.571c-.319-.19-.637-.444-.891-.635-1.146-.888-.891-1.904.19-2.602 1.146-.761 2.546-1.332 4.519-2.03.636-.19.89-.508.763-.762 0 0 0-.064-.063-.064 0-.063-.064-.063-.127-.126-.382-.381-1.21-.699-2.61-.762-.572-.063-1.845 0-3.5.508-3.118.888-6.109 3.236-6.172 4.125-.064 1.269 3.181 3.3 5.663 4.632.128.572.128 1.27.128 1.968v.19c0 1.015-.128 2.094-.255 2.792-.19 1.46-1.21 1.714-2.355 1.08-1.209-.635-2.354-1.587-4.009-2.983-.509-.445-.89-.572-1.081-.254 0 .063 0 .063-.064.127-.127.507-.064 1.396.636 2.665.255.508.891 1.587 2.1 2.792 2.228 2.285 5.791 3.808 6.619 3.364 1.145-.508 1.336-4.38 1.336-7.235.064-.063.127-.063.19-.127l.064-.063.064-.064c.954-.634 2.354-1.332 3.436-1.777 0 0 .064 0 .064-.063.064 0 .064 0 .127-.064.064 0 .128-.063.191-.063h.064c.064 0 .127-.063.19-.063 1.337-.508 2.1.253 2.1 1.523 0 1.396-.19 2.855-.636 4.95-.127.698-.063 1.079.319 1.079h.127c.509-.128 1.209-.635 2.036-1.84.318-.445.955-1.587 1.4-3.238.891-3.11.51-6.917-.254-7.425-.955-.57-4.328 1.08-6.746 2.412zm27.873 6.664c0 1.523 0 1.84-2.673 2.728l1.273 2.856c5.282-1.142 5.282-2.538 5.282-5.838V6.79H47.09v14.597zm12.154-1.143c-1.463 0-2.227-.888-2.418-2.729h7.891s.191-.698.191-1.713c0-3.046-1.909-5.33-5.79-5.33-3.819 0-6.11 2.347-6.11 6.282 0 4.315 2.61 6.22 5.855 6.22 2.8 0 5.218-1.334 6.109-1.841l-1.337-2.348c-1.463.825-3.118 1.46-4.39 1.46zm-.063-7.044c1.4 0 2.1.825 2.1 2.412H56.89c.19-1.587.955-2.412 2.29-2.412zm13.3 6.537c-.446 0-1.018-.064-1.018-1.08v-5.14h3.245V10.79h-3.245V7.3l-3.691.443v3.047h-1.655v2.728h1.655v5.14c0 2.983 1.209 4.38 3.69 4.38 1.719 0 3.246-.635 4.073-1.016l-1.272-2.792c-.319.127-1.273.508-1.782.508zm2.736-9.647h4.646v12.693h3.882V10.09h4.581v-3.3H75.218v3.3zm22.973.445c-1.846 0-3.437.888-4.518 1.586V6.092h-3.755v16.69h3.755V14.85c.7-.635 1.909-1.396 3.054-1.396 1.146 0 1.4.761 1.4 1.777v7.552h3.755v-8.44c-.064-2.349-1.082-3.808-3.691-3.808zm11.9 0c-4.136 0-6.364 2.284-6.364 6.219 0 3.998 2.291 6.282 6.364 6.282 4.136 0 6.364-2.284 6.364-6.219 0-3.998-2.291-6.282-6.364-6.282zm0 9.646c-1.782 0-2.546-1.27-2.546-3.364s.764-3.363 2.546-3.363c1.782 0 2.609 1.27 2.609 3.363 0 2.095-.827 3.364-2.609 3.364zm16.482-1.46c-.764.698-2.037 1.396-3.055 1.396-1.145 0-1.4-.761-1.4-1.777v-7.55h-3.754v8.44c0 2.348 1.081 3.808 3.627 3.808 1.845 0 3.436-.825 4.582-1.587v1.333h3.754V10.788h-3.754v7.933zm14.318-6.663c-1.018-.825-2.227-1.523-3.946-1.523-2.8 0-4.709 2.094-4.709 6.282 0 4.125 1.909 6.22 4.709 6.22 1.719 0 2.928-.635 3.946-1.46v1.27c0 1.332-.573 1.84-2.418 1.84-1.209 0-3.437-.508-4.964-.952l-.764 2.982c2.037.572 4.582.952 6.491.952 3.628 0 5.409-1.65 5.409-5.077V10.79h-3.754v1.269zm0 6.536c-.891.952-1.846 1.396-2.736 1.396-1.4 0-2.1-1.142-2.1-3.236 0-2.094.7-3.237 2.1-3.237.954 0 1.909.444 2.736 1.397v3.68zm14.573-8.06c-1.846 0-3.437.89-4.519 1.587V6.092h-3.754v16.69h3.754V14.85c.7-.635 1.91-1.396 3.055-1.396 1.145 0 1.4.761 1.4 1.777v7.552h3.755v-8.44c-.064-2.349-1.082-3.808-3.691-3.808zm11.645 9.202c-.445 0-1.018-.063-1.018-1.078v-5.14h3.245v-2.73h-3.245v-3.49l-3.691.444v3.047h-1.655v2.728h1.655v5.14c0 2.983 1.209 4.38 3.691 4.38 1.718 0 3.245-.635 4.073-1.016l-1.273-2.792c-.318.127-1.209.508-1.782.508zm10.627-4.315c-1.527-.38-3.054-.571-3.054-1.332 0-.381.445-.699 1.336-.699 1.146 0 2.927.508 4.009.952l1.464-2.475c-1.273-.57-3.627-1.332-5.727-1.332-3.119 0-4.837 1.586-4.837 3.68 0 2.412 2.164 3.364 4.137 3.872 1.336.317 3.181.634 3.181 1.396 0 .38-.445.761-1.336.761-1.273 0-3.564-.761-4.773-1.332l-1.463 2.602c1.336.761 3.945 1.586 6.363 1.586 3.182 0 4.964-1.46 4.964-3.68 0-2.54-2.227-3.491-4.264-3.999z"/></g></svg>
